build/img/doc-checked.svg

<svg width="24" height="25" viewBox="0 0 24 25" fill="none" xmlns="http://www.w3.org/2000/svg"><path d="M17 22.5a5 5 0 11.001-10.001A5 5 0 0117 22.5" stroke="#2858FF" stroke-width="1.5" stroke-linecap="round" stroke-linejoin="round"/><path d="M19.221 16.39l-2.778 2.777-1.666-1.667" stroke="#2858FF" stroke-width="1.5" stroke-linecap="round" stroke-linejoin="round"/><path d="M19 12.917V8.328a2 2 0 00-.586-1.414l-2.828-2.828a2 2 0 00-1.414-.586H5a2 2 0 00-2 2v14a2 2 0 002 2h9.003" stroke="#2858FF" stroke-width="1.5" stroke-linecap="round" stroke-linejoin="round"/><path d="M19 8.5h-4a1 1 0 01-1-1v-4" stroke="#2858FF" stroke-width="1.5" stroke-linecap="round" stroke-linejoin="round"/></svg>

<svg width="24" height="25" viewBox="0 0 24 25" fill="none" xmlns="http://www.w3.org/2000/svg">
<path d="M17 22.5C14.239 22.5 12 20.261 12 17.5C12 14.739 14.239 12.5 17 12.5C19.762 12.5 22 14.739 22 17.5C22 20.261 19.762 22.5 17 22.5" stroke="#2858FF" stroke-width="1.5" stroke-linecap="round" stroke-linejoin="round"/>
<path d="M19.2213 16.3892L16.4433 19.1672L14.7773 17.5002" stroke="#2858FF" stroke-width="1.5" stroke-linecap="round" stroke-linejoin="round"/>
<path d="M19 12.917V8.328C19 7.798 18.789 7.289 18.414 6.914L15.586 4.086C15.211 3.711 14.702 3.5 14.172 3.5H5C3.895 3.5 3 4.395 3 5.5V19.5C3 20.605 3.895 21.5 5 21.5H14.003" stroke="#2858FF" stroke-width="1.5" stroke-linecap="round" stroke-linejoin="round"/>
<path d="M19 8.5H15C14.448 8.5 14 8.052 14 7.5V3.5" stroke="#2858FF" stroke-width="1.5" stroke-linecap="round" stroke-linejoin="round"/>
</svg>
